<?xml version="1.0" encoding="UTF-8"?>
<map version="1.10" tiledversion="1.11.0" orientation="orthogonal" renderorder="right-down" width="40" height="30" tilewidth="16" tileheight="16" infinite="0" nextlayerid="4" nextobjectid="1">
 <tileset firstgid="1" source="tileset.tsx"/>
 <layer id="1" name="background" width="40" height="30">
  <data encoding="csv">
53,53,53,53,53,53,53,53,53,53,53,53,53,53,53,53,53,53,53,53,53,53,53,53,53,53,53,53,53,53,53,53,75,76,77,53,53,53,53,53,
53,53,53,53,53,53,53,53,53,53,53,53,53,53,53,53,53,53,53,53,53,53,53,53,53,53,53,53,53,53,53,53,91,92,93,53,53,53,53,53,
53,53,53,53,53,53,53,53,53,53,53,53,53,53,53,53,53,53,53,53,53,53,53,53,53,53,53,53,53,53,53,53,107,108,109,53,53,53,53,53,
53,53,53,53,53,53,53,53,53,53,53,53,53,53,53,53,53,53,53,53,53,53,53,53,53,53,53,53,53,53,53,53,123,124,125,53,53,53,53,53,
53,53,49,50,53,53,49,50,53,53,53,53,53,53,53,53,53,53,53,53,53,53,53,53,53,53,53,53,53,53,53,53,53,53,53,53,53,53,49,50,
53,53,37,37,53,53,37,37,53,53,53,53,53,53,49,50,53,53,49,50,53,53,53,53,53,53,49,50,53,53,53,53,53,53,49,50,53,53,37,37,
49,50,37,37,49,50,37,37,49,50,53,53,49,50,37,37,49,50,37,37,49,50,53,53,49,50,37,37,49,50,53,53,49,50,37,37,49,50,37,37,
37,37,37,37,37,37,37,37,37,37,53,53,37,37,37,37,37,37,37,37,37,37,53,53,37,37,37,37,37,37,53,53,37,37,37,37,37,37,37,37,
37,37,37,74,37,37,37,37,37,37,53,53,37,37,37,37,37,74,37,37,37,37,53,53,37,37,37,74,37,37,53,53,37,37,37,37,37,74,37,37,
37,37,37,37,37,37,37,37,37,37,53,53,37,37,37,37,37,37,37,37,37,37,53,53,37,37,37,37,37,37,53,53,37,37,37,37,37,37,37,37,
37,37,37,37,37,37,35,36,37,37,53,53,37,37,35,36,37,37,37,37,37,37,53,53,37,37,37,37,37,37,53,53,37,37,37,37,37,37,35,36,
37,37,35,36,37,37,53,53,37,37,53,53,37,37,53,53,37,37,35,36,37,37,53,53,37,37,35,36,37,37,53,53,37,37,35,36,37,37,53,53,
35,36,53,53,35,36,53,53,35,36,53,53,35,36,53,53,35,36,53,53,35,36,53,53,35,36,53,53,35,36,53,53,35,36,53,53,35,36,53,53,
53,53,53,53,53,53,53,53,53,53,53,53,53,53,53,53,53,53,53,53,53,53,53,53,53,53,53,53,53,53,53,53,53,53,53,53,53,53,53,53,
53,53,53,53,53,53,53,53,53,53,53,53,53,53,53,53,28,29,53,53,53,53,53,53,53,53,53,53,53,53,53,53,53,53,53,53,53,53,28,29,
53,53,53,53,53,53,28,29,53,53,53,53,53,53,53,53,42,42,53,53,53,53,53,53,53,28,29,53,53,53,53,53,53,53,53,53,53,53,42,42,
53,53,53,53,53,53,44,45,53,53,53,53,53,53,53,53,44,45,53,53,53,53,53,53,53,44,45,53,53,53,53,53,53,53,53,53,53,53,44,45,
53,53,53,53,53,53,60,61,53,53,53,53,53,53,53,53,60,61,53,53,53,53,53,53,53,60,61,53,53,53,53,53,53,53,53,53,53,53,60,61,
41,89,41,41,41,41,41,41,41,41,41,41,89,41,41,41,41,41,41,41,89,41,41,41,41,41,41,89,41,41,41,41,41,41,41,41,41,89,41,41,
41,41,41,41,57,58,57,41,57,58,57,41,57,58,57,41,41,41,41,41,41,41,41,41,41,41,41,41,41,41,41,41,41,41,41,41,41,41,41,41,
57,41,57,58,42,42,42,58,42,42,42,58,42,42,42,58,57,41,57,58,57,41,57,58,57,41,57,58,57,41,57,58,57,41,57,58,57,41,57,58,
42,58,42,42,42,42,42,42,42,42,42,42,42,42,42,42,42,58,42,42,42,58,42,42,42,58,42,42,42,42,42,42,42,58,42,42,42,58,42,42,
42,42,42,42,42,42,42,42,42,42,42,42,42,42,42,42,42,42,42,42,42,42,42,90,42,42,42,42,42,42,42,42,42,42,42,42,42,42,42,42,
42,42,42,42,42,42,42,42,42,42,42,42,42,42,42,42,42,42,42,42,42,42,42,42,42,42,42,42,42,42,42,42,42,42,42,42,42,42,42,90,
42,42,42,42,42,42,42,42,42,42,42,42,42,42,42,42,42,42,42,42,90,42,42,42,42,42,42,42,42,42,42,42,42,42,42,42,42,42,42,42,
42,90,42,42,42,42,42,42,42,42,42,42,42,42,42,42,42,42,42,90,42,90,42,42,42,42,42,42,42,42,42,42,42,42,42,42,42,42,42,42,
42,42,42,42,42,42,42,42,42,42,42,42,42,42,42,42,42,42,42,42,42,42,42,42,90,42,90,42,42,42,42,42,42,42,42,42,42,42,42,42,
42,42,42,42,42,42,42,42,42,42,42,42,42,42,42,42,42,42,42,42,42,42,42,42,42,90,42,42,42,42,42,42,42,42,42,42,42,42,42,42,
90,42,42,42,42,42,42,42,42,42,42,42,42,42,42,42,42,42,42,42,42,42,90,42,42,42,42,42,42,42,42,42,42,42,42,42,42,42,42,42,
42,42,42,42,42,42,42,42,42,42,42,42,42,42,42,42,42,42,42,42,42,42,42,42,42,42,42,42,42,42,42,42,42,42,42,42,42,42,42,42
</data>
 </layer>
 <layer id="2" name="letter clue" width="40" height="30">
  <data encoding="csv">
0,0,0,0,0,0,0,0,0,0,0,0,0,0,0,0,0,0,0,0,0,0,0,0,0,0,0,0,0,0,0,0,0,0,0,0,0,0,0,0,
0,0,0,0,0,0,0,0,0,0,0,0,0,0,0,0,0,0,0,0,0,0,0,0,0,0,0,0,0,0,0,0,0,0,0,0,0,0,0,0,
0,0,0,0,0,0,0,0,0,0,0,0,0,0,0,0,0,0,0,0,0,0,0,0,0,0,0,0,0,0,0,0,0,0,0,0,0,0,0,0,
0,0,0,0,0,0,0,0,0,0,0,0,0,0,0,0,0,0,0,0,0,0,0,0,0,0,0,0,0,0,0,0,0,0,0,0,0,0,0,0,
0,0,0,0,0,0,0,0,0,0,0,0,0,0,0,0,0,0,0,0,0,0,0,0,0,0,0,0,0,0,0,0,0,0,0,0,0,0,0,0,
0,0,0,0,0,0,0,0,0,0,0,0,0,0,0,0,0,0,0,0,0,0,0,0,0,0,0,0,0,0,0,0,0,0,0,0,0,0,0,0,
0,0,0,0,0,0,0,78,79,80,78,79,80,78,79,80,30,31,32,78,79,80,0,0,78,79,80,78,79,80,78,79,80,78,79,80,0,0,0,0,
0,0,0,0,0,0,0,94,95,96,94,95,96,94,95,96,46,47,48,94,95,96,0,0,94,95,96,94,95,96,94,95,96,94,95,96,0,0,0,0,
0,0,0,0,0,0,0,110,111,112,110,111,112,110,111,112,62,63,64,110,111,112,0,0,110,111,112,110,111,112,110,111,112,110,111,112,0,0,0,0,
0,0,0,0,0,0,0,0,0,0,0,0,0,0,0,0,0,0,0,0,0,0,0,0,0,0,0,0,0,0,0,0,0,0,0,0,0,0,0,0,
0,0,0,0,0,0,0,78,79,80,78,79,80,78,79,80,78,79,80,78,79,80,78,79,80,78,79,80,78,79,80,78,79,80,0,0,0,0,0,0,
0,0,0,0,0,0,0,94,95,96,94,95,96,94,95,96,94,95,96,94,95,96,94,95,96,94,95,96,94,95,96,94,95,96,0,0,0,0,0,0,
0,0,0,0,0,0,0,110,111,112,110,111,112,110,111,112,110,111,112,110,111,112,110,111,112,110,111,112,110,111,112,110,111,112,0,0,0,0,0,0,
0,0,0,0,0,0,0,0,0,0,0,0,0,0,0,0,0,0,0,0,0,0,0,0,0,0,0,0,0,0,0,0,0,0,0,0,0,0,0,0,
0,0,0,0,0,0,0,0,0,0,0,0,0,0,0,0,0,0,0,0,0,0,0,0,0,0,0,0,0,55,0,0,0,0,0,0,0,0,0,0,
0,0,0,0,0,0,0,0,0,0,0,0,0,0,0,0,0,0,0,0,0,0,0,0,0,0,0,0,39,39,39,39,39,56,39,39,56,0,0,0,
0,0,0,0,0,0,0,0,0,0,0,0,0,0,0,0,0,0,0,0,0,0,0,0,0,0,0,0,0,39,0,0,0,0,65,66,0,0,0,0,
0,0,0,0,0,0,0,0,0,0,0,0,0,0,0,0,0,0,0,0,0,0,0,0,0,0,0,0,0,39,0,0,0,0,81,82,0,0,0,0,
0,0,0,0,0,0,0,0,0,0,0,0,0,0,0,0,0,0,0,0,0,0,0,0,0,0,0,0,0,55,0,0,0,83,37,37,84,0,0,0,
0,0,0,0,0,0,0,0,0,0,0,0,0,0,0,0,0,0,0,0,0,0,0,0,0,0,0,0,0,56,0,0,67,68,37,37,69,70,0,0,
0,0,0,0,0,0,0,0,0,0,0,0,0,0,0,0,0,0,0,0,0,0,0,0,0,0,0,0,0,39,0,0,101,0,37,37,0,101,0,0,
0,0,0,0,0,0,0,0,0,0,0,0,0,0,0,0,0,0,0,0,0,0,0,0,0,0,0,0,0,39,0,0,0,71,73,73,72,0,0,0,
0,0,0,38,0,38,0,33,0,34,0,34,0,38,0,38,0,0,0,0,0,0,0,0,0,0,0,0,0,55,0,0,0,73,0,0,73,0,0,0,
0,0,0,0,0,0,0,0,0,0,0,0,0,0,0,0,0,0,0,0,0,0,0,0,0,0,0,0,0,56,0,0,0,73,0,0,73,0,0,0,
0,0,0,38,0,34,0,38,0,38,0,38,0,38,0,38,0,0,0,0,0,0,0,0,0,0,0,0,0,39,0,0,0,73,0,0,73,0,0,0,
0,0,0,0,0,0,0,0,0,0,0,0,0,0,0,0,0,0,0,0,0,0,0,0,0,0,0,0,0,39,0,0,97,98,0,0,99,100,0,0,
0,0,0,38,0,38,0,38,0,38,0,38,0,38,0,38,0,0,0,0,0,0,0,0,0,0,0,0,0,56,0,0,0,0,0,0,0,0,0,0,
0,0,0,0,0,0,0,0,0,0,0,0,0,0,0,0,0,0,0,0,0,0,0,0,0,0,0,0,40,40,40,40,40,40,40,40,40,40,40,0,
0,0,0,38,0,34,0,38,0,38,0,34,0,38,0,54,0,0,0,0,0,0,0,0,0,0,0,0,40,40,40,40,40,40,40,40,40,40,40,0,
0,0,0,0,0,0,0,0,0,0,0,0,0,0,0,0,0,0,0,0,0,0,0,0,0,0,0,0,40,40,40,40,40,40,40,40,40,40,40,0
</data>
 </layer>
 <layer id="3" name="text" width="40" height="30">
  <data encoding="csv">
0,0,0,0,0,0,0,0,0,0,0,0,0,0,0,0,0,0,0,0,0,0,0,0,0,0,0,0,0,0,0,0,0,0,0,0,0,0,0,0,
0,0,14,16,23,10,6,0,9,2,15,8,14,2,15,0,0,0,0,0,0,0,0,0,0,0,0,0,0,0,0,0,0,0,0,0,0,0,0,0,
0,0,0,0,0,0,0,0,0,0,0,0,0,0,0,0,0,0,0,0,0,0,0,0,0,0,0,0,0,0,0,0,0,0,0,0,0,0,0,0,
0,0,7,19,16,14,0,115,113,114,120,0,0,0,0,0,0,0,0,0,0,0,0,0,0,0,0,0,0,0,0,0,0,0,0,0,0,0,0,0,
0,0,0,0,0,0,0,0,0,0,0,0,0,0,0,0,0,0,0,0,0,0,0,0,0,0,0,0,0,0,0,0,0,0,0,0,0,0,0,0,
0,0,0,0,0,0,0,0,0,0,0,0,0,0,0,0,0,0,0,0,0,0,0,0,0,0,0,0,0,0,0,0,0,0,0,0,0,0,0,0,
0,0,0,0,0,0,0,0,0,0,0,0,0,0,0,0,0,0,0,0,0,0,0,0,0,0,0,0,0,0,0,0,0,0,0,0,0,0,0,0,
0,0,0,0,0,0,0,0,5,0,0,6,0,0,0,0,0,0,0,0,0,0,0,0,0,24,0,0,10,0,0,0,0,0,0,0,0,0,0,0,
0,0,0,0,0,0,0,0,0,0,0,0,0,0,0,0,0,0,0,0,0,0,0,0,0,0,0,0,0,0,0,0,0,0,0,0,0,0,0,0,
0,0,0,0,0,0,0,0,0,0,0,0,0,0,0,0,0,0,0,0,0,0,0,0,0,0,0,0,0,0,0,0,0,0,0,0,0,0,0,0,
0,0,0,0,0,0,0,0,0,0,0,0,0,0,0,0,0,0,0,0,0,0,0,0,0,0,0,0,0,0,0,0,0,0,0,0,0,0,0,0,
0,0,0,0,0,0,0,0,0,0,0,0,0,0,0,0,0,0,0,0,0,0,0,0,0,0,0,0,0,0,0,0,0,0,0,0,0,0,0,0,
0,0,0,0,0,0,0,0,0,0,0,0,0,0,0,0,0,0,0,0,0,0,0,0,0,0,0,0,0,0,0,0,0,0,0,0,0,0,0,0,
0,0,0,0,0,0,0,0,0,0,0,0,0,0,0,0,0,0,0,0,0,0,0,0,0,0,0,0,0,0,0,0,0,0,0,0,0,0,0,0,
0,0,0,0,0,0,0,0,0,0,0,0,0,0,0,0,0,0,0,0,0,0,0,0,0,0,0,0,0,0,0,0,0,0,0,0,0,0,0,0,
0,0,0,0,0,0,0,0,0,0,0,0,0,0,0,0,0,0,0,0,0,0,0,0,0,0,0,0,0,0,0,0,0,0,0,0,0,0,0,0,
0,0,0,0,0,0,0,0,0,0,0,0,0,0,0,0,0,0,0,0,0,0,0,0,0,0,0,0,0,0,0,0,0,0,0,0,0,0,0,0,
0,0,0,0,0,0,0,0,0,0,0,0,0,0,0,0,0,0,0,0,0,0,0,0,0,0,0,0,0,0,0,0,0,0,0,0,0,0,0,0,
0,0,0,0,0,0,0,0,0,0,0,0,0,0,0,0,0,0,0,0,0,0,0,0,0,0,0,0,0,0,0,0,0,0,0,0,0,0,0,0,
0,0,0,0,0,0,0,0,0,0,0,0,0,0,0,0,0,0,0,0,0,0,0,0,0,0,0,0,0,0,0,0,0,0,0,0,0,0,0,0,
0,0,0,0,0,0,0,0,0,0,0,0,0,0,0,0,0,0,0,0,0,0,0,0,0,0,0,0,0,0,0,0,0,0,0,0,0,0,0,0,
0,0,0,0,0,0,0,0,0,0,0,0,0,0,0,0,0,0,0,0,0,0,0,0,0,0,0,0,0,0,0,0,0,0,0,0,0,0,0,0,
0,0,0,1,0,2,0,3,0,4,0,5,0,6,0,7,0,0,0,0,0,0,0,0,0,0,0,0,0,0,0,0,0,0,0,0,0,0,0,0,
0,0,0,0,0,0,0,0,0,0,0,0,0,0,0,0,0,0,0,0,0,0,0,0,0,0,0,0,0,0,0,0,0,0,0,0,0,0,0,0,
0,0,0,8,0,9,0,10,0,11,0,12,0,13,0,14,0,0,0,0,0,0,0,0,0,0,0,0,0,0,0,0,0,0,0,0,0,0,0,0,
0,0,0,0,0,0,0,0,0,0,0,0,0,0,0,0,0,0,0,0,0,0,0,0,0,0,0,0,0,0,0,0,0,0,0,0,0,0,0,0,
0,0,0,15,0,16,0,17,0,18,0,19,0,20,0,21,0,0,0,0,0,0,0,0,0,0,0,0,0,0,0,0,0,0,0,0,0,0,0,0,
0,0,0,0,0,0,0,0,0,0,0,0,0,0,0,0,0,0,0,0,0,0,0,0,0,0,0,0,0,0,0,0,0,0,0,0,0,0,0,0,
0,0,0,22,0,23,0,24,0,25,0,26,0,27,0,0,0,0,0,0,0,0,0,0,0,0,0,0,0,0,0,0,0,0,0,0,0,0,0,0,
0,0,0,0,0,0,0,0,0,0,0,0,0,0,0,0,0,0,0,0,0,0,0,0,0,0,0,0,0,0,0,0,0,0,0,0,0,0,0,0
</data>
 </layer>
</map>
